X:1
T:Estonia, 87.87 D
T:Estonia, 87.87 D
T:William A. Pickell, 1896
T:Public Domain Courtesy of the Cyber Hymnal™
C:William A. Pickell, 1896
Z:Public Domain
Z:Courtesy of the Cyber Hymnal™
%%score ( 1 2 ) 3
L:1/8
Q:1/4=110
M:4/4
K:A
V:1 treble 
V:2 treble 
V:3 bass 
V:1
 [CE]2 [CA]2 [Fd]3 [Ec] | [DF]2 [DB]2 [DB]2 [DA]2 | [DG]2 [DG]2 [DF]3 [DE] | [CF]2 [CE]2 [Ec]4 | %4
 [CE]2 [CA]2 [Fd]3 [Ec] | [DF]2 [Fd]2 [Fc]2 [FB]2 | [EA]2 [_EA]2 [DA]3 [DG] | [DF]2 [DG]2 [CA]4 | %8
 [^Ec]2 [Ec]2 [Ec]3 [EG] | [FA]3 [FA] [FA]2 [Fc]2 | [F^d]3 [^Dc] [DB][DA][DG][DF] | %11
"^riten." E2 [CE]2 [DE]4 | [CE]2 [DE]2 [CE]3 [Ec] | [DB]2 [Fd]2 [Fc]2 [Fc]2 | %14
 [EA]2 [_EA]2 [DA]3 [DG] | [DF]2 [DG]2 [CA]4 |] %16
V:2
 x8 | x8 | x8 | x8 | x8 | x8 | x8 | x8 | x8 | x8 | x8 | E2 x6 | x8 | x8 | x8 | x8 |] %16
V:3
 [A,,A,]2 [A,,E,]2 [A,,A,]3 [A,,A,] | [D,A,]2 [D,F,]2 [D,F,]2 [D,F,]2 | %2
 [E,B,]2 [E,B,]2 [E,A,]3 [E,G,] | [A,,A,]2 [A,,A,]2 [A,,A,]4 | [A,,A,]2 [A,,E,]2 [A,,A,]3 [A,,A,] | %5
 [D,A,]2 [B,,B,]2 [C,^A,]2 [D,B,]2 | [E,C]2 [E,C]2 [E,B,]3 [E,B,] | [E,A,]2 [E,B,]2 [A,,A,]4 | %8
 [C,G,]2 [C,G,]2 [C,G,]3 [C,C] | [F,C]3 [F,C] [F,C]2 [F,A,]2 | %10
 [D,A,]3 [B,,B,] [B,,B,][B,,B,][B,,B,][B,,A,] | [E,G,]2 [E,A,]2 [E,B,]4 | %12
 [A,,A,]2 [B,,G,]2 [A,,A,]3 [A,,A,] | [D,F,]2 [B,,B,]2 [C,^A,]2 [D,B,]2 | %14
 [E,C]2 [E,C]2 [E,B,]3 [E,B,] | [E,A,]2 [E,B,]2 [A,,A,]4 |] %16

